tests/openimageio_io_test/test_transform.cube
LUT_1D_SIZE 2
DOMAIN_MIN 0.0 0.0 0.0
DOMAIN_MAX 1.0 1.0 1.0
1.0 1.0 1.0
0.0 0.0 0.0
