openimageio_io_test_fixtures/input_test.cube
TITLE "deterministic test LUT"
LUT_1D_SIZE 2
DOMAIN_MIN 0.0 0.0 0.0
DOMAIN_MAX 1.0 1.0 1.0
1.0 1.0 1.0
0.0 0.0 0.0
